packages/icons/svg/Fill/backspace.svg

<svg width="24" height="24" viewBox="0 0 24 24" fill="none" xmlns="http://www.w3.org/2000/svg">
<g id="Icon/Fill/backspace">
<path id="Mask" fill-rule="evenodd" clip-rule="evenodd" d="M16.7071 13.293C17.0981 13.684 17.0981 14.316 16.7071 14.707C16.5121 14.902 16.2561 15 16.0001 15C15.7441 15 15.4881 14.902 15.2931 14.707L14.0001 13.414L12.7071 14.707C12.5121 14.902 12.2561 15 12.0001 15C11.7441 15 11.4881 14.902 11.2931 14.707C10.9021 14.316 10.9021 13.684 11.2931 13.293L12.5861 12L11.2931 10.707C10.9021 10.316 10.9021 9.684 11.2931 9.293C11.6841 8.902 12.3161 8.902 12.7071 9.293L14.0001 10.586L15.2931 9.293C15.6841 8.902 16.3161 8.902 16.7071 9.293C17.0981 9.684 17.0981 10.316 16.7071 10.707L15.4141 12L16.7071 13.293ZM20.1411 4H10.3701C9.62206 4 8.90507 4.277 8.35207 4.781C8.31307 4.815 8.27807 4.854 8.24607 4.894L2.22207 12.373C1.89007 12.785 1.93607 13.384 2.32707 13.74L8.35207 19.219C8.90507 19.723 9.62206 20 10.3701 20H20.1411C21.1661 20 22.0001 19.185 22.0001 18.182V5.818C22.0001 4.815 21.1661 4 20.1411 4Z" fill="#000000"/>
</g>
</svg>

<svg fill="none" height="24" viewBox="0 0 24 24" width="24" xmlns="http://www.w3.org/2000/svg"><path clip-rule="evenodd" d="m16.707 13.2929c.391.391.391 1.023 0 1.414-.195.195-.451.293-.707.293s-.512-.098-.707-.293l-1.293-1.293-1.293 1.293c-.195.195-.451.293-.707.293s-.512-.098-.707-.293c-.391-.391-.391-1.023 0-1.414l1.293-1.293-1.293-1.293c-.391-.391-.391-1.02303 0-1.41403s1.023-.391 1.414 0l1.293 1.29303 1.293-1.29303c.391-.391 1.023-.391 1.414 0s.391 1.02303 0 1.41403l-1.293 1.293zm3.434-9.2929h-9.771c-.74801 0-1.46501.277-2.01801.781-.039.034-.074.073-.106.113l-6.024 7.479c-.332.412-.286 1.011.105 1.367l6.025 5.479c.553.504 1.27.781 2.01801.781h9.771c1.025 0 1.859-.815 1.859-1.818v-12.364c0-1.003-.834-1.818-1.859-1.818z" fill="#6b7280" fill-rule="evenodd"/></svg>
